mimes/48/text-x-preview.svg

<?xml version="1.0" encoding="UTF-8" standalone="no"?>
<!-- Created with Inkscape (http://www.inkscape.org/) -->

<svg
   xmlns:svg="http://www.w3.org/2000/svg"
   xmlns="http://www.w3.org/2000/svg"
   xmlns:xlink="http://www.w3.org/1999/xlink"
   version="1.0"
   width="48"
   height="48"
   id="svg4486">
  <defs
     id="defs4488">
    <linearGradient
       id="linearGradient5048">
      <stop
         id="stop5050"
         style="stop-color:black;stop-opacity:0"
         offset="0" />
      <stop
         id="stop5056"
         style="stop-color:black;stop-opacity:1"
         offset="0.5" />
      <stop
         id="stop5052"
         style="stop-color:black;stop-opacity:0"
         offset="1" />
    </linearGradient>
    <linearGradient
       id="linearGradient5060">
      <stop
         id="stop5062"
         style="stop-color:black;stop-opacity:1"
         offset="0" />
      <stop
         id="stop5064"
         style="stop-color:black;stop-opacity:0"
         offset="1" />
    </linearGradient>
    <linearGradient
       id="linearGradient3104">
      <stop
         id="stop3106"
         style="stop-color:#aaa;stop-opacity:1"
         offset="0" />
      <stop
         id="stop3108"
         style="stop-color:#c8c8c8;stop-opacity:1"
         offset="1" />
    </linearGradient>
    <linearGradient
       id="linearGradient3600">
      <stop
         id="stop3602"
         style="stop-color:#f4f4f4;stop-opacity:1"
         offset="0" />
      <stop
         id="stop3604"
         style="stop-color:#dbdbdb;stop-opacity:1"
         offset="1" />
    </linearGradient>
    <radialGradient
       cx="102"
       cy="112.3047"
       r="139.55859"
       id="XMLID_8_"
       gradientUnits="userSpaceOnUse">
      <stop
         id="stop41"
         style="stop-color:#b7b8b9;stop-opacity:1"
         offset="0" />
      <stop
         id="stop47"
         style="stop-color:#ececec;stop-opacity:1"
         offset="0.18851049" />
      <stop
         id="stop49"
         style="stop-color:#fafafa;stop-opacity:0"
         offset="0.25718147" />
      <stop
         id="stop51"
         style="stop-color:white;stop-opacity:0"
         offset="0.30111277" />
      <stop
         id="stop53"
         style="stop-color:#fafafa;stop-opacity:0"
         offset="0.53130001" />
      <stop
         id="stop55"
         style="stop-color:#ebecec;stop-opacity:0"
         offset="0.84490001" />
      <stop
         id="stop57"
         style="stop-color:#e1e2e3;stop-opacity:0"
         offset="1" />
    </radialGradient>
    <linearGradient
       id="linearGradient3211">
      <stop
         id="stop3213"
         style="stop-color:white;stop-opacity:1"
         offset="0" />
      <stop
         id="stop3215"
         style="stop-color:white;stop-opacity:0"
         offset="1" />
    </linearGradient>
    <linearGradient
       id="linearGradient8589">
      <stop
         id="stop8591"
         style="stop-color:#fefefe;stop-opacity:1"
         offset="0" />
      <stop
         id="stop8593"
         style="stop-color:#cbcbcb;stop-opacity:1"
         offset="1" />
    </linearGradient>
    <linearGradient
       x1="32.892288"
       y1="8.0590115"
       x2="36.358372"
       y2="5.4565363"
       id="linearGradient3312"
       xlink:href="#linearGradient8589"
       gradientUnits="userSpaceOnUse"
       gradientTransform="matrix(0.9976985,0,0,1.0406866,0.1638029,-1.1057939)" />
    <linearGradient
       x1="24"
       y1="1.9999999"
       x2="24"
       y2="46.01725"
       id="linearGradient3316"
       xlink:href="#linearGradient3211"
       gradientUnits="userSpaceOnUse"
       gradientTransform="matrix(1,0,0,0.9777778,0,-0.9666693)" />
    <radialGradient
       cx="102"
       cy="112.3047"
       r="139.55859"
       id="radialGradient3319"
       xlink:href="#XMLID_8_"
       gradientUnits="userSpaceOnUse"
       gradientTransform="matrix(0.3617022,0,0,-0.3907784,0.8510637,47.517004)" />
    <linearGradient
       x1="25.132275"
       y1="0.98520643"
       x2="25.132275"
       y2="47.013336"
       id="linearGradient3322"
       xlink:href="#linearGradient3600"
       gradientUnits="userSpaceOnUse"
       gradientTransform="matrix(1,0,0,0.9561695,-1.0064697e-7,-1.914922)" />
    <linearGradient
       x1="-51.786404"
       y1="50.786446"
       x2="-51.786404"
       y2="2.9062471"
       id="linearGradient3324"
       xlink:href="#linearGradient3104"
       gradientUnits="userSpaceOnUse"
       gradientTransform="matrix(0.8074968,0,0,0.8948322,59.410232,-2.9805533)" />
    <radialGradient
       cx="605.71429"
       cy="486.64789"
       r="117.14286"
       fx="605.71429"
       fy="486.64789"
       id="radialGradient3327"
       xlink:href="#linearGradient5060"
       gradientUnits="userSpaceOnUse"
       gradientTransform="matrix(0.02303995,0,0,0.01470022,26.360882,37.040176)" />
    <radialGradient
       cx="605.71429"
       cy="486.64789"
       r="117.14286"
       fx="605.71429"
       fy="486.64789"
       id="radialGradient3330"
       xlink:href="#linearGradient5060"
       gradientUnits="userSpaceOnUse"
       gradientTransform="matrix(-0.02303994,0,0,0.01470022,21.62311,37.040176)" />
    <linearGradient
       x1="302.85715"
       y1="366.64789"
       x2="302.85715"
       y2="609.50507"
       id="linearGradient3333"
       xlink:href="#linearGradient5048"
       gradientUnits="userSpaceOnUse"
       gradientTransform="matrix(0.06732488,0,0,0.01470022,-0.3411391,37.040146)" />
    <filter
       x="-0.14846256"
       y="-0.16434373"
       width="1.2969251"
       height="1.3286875"
       color-interpolation-filters="sRGB"
       id="filter3212">
      <feGaussianBlur
         stdDeviation="0.77391625"
         id="feGaussianBlur3214" />
    </filter>
  </defs>
  <rect
     width="32.508301"
     height="3.5700529"
     x="7.7378473"
     y="42.429947"
     id="rect2879"
     style="opacity:0.3;fill:url(#linearGradient3333);fill-opacity:1;fill-rule:nonzero;stroke:none;stroke-width:1;marker:none;visibility:visible;display:inline;overflow:visible" />
  <path
     d="m 7.7378475,42.430102 c 0,0 0,3.569856 0,3.569856 -1.1865002,0.0067 -2.8683795,-0.799823 -2.8683795,-1.785158 0,-0.985333 1.3240446,-1.784697 2.8683795,-1.784698 z"
     id="path2881"
     style="opacity:0.3;fill:url(#radialGradient3330);fill-opacity:1;fill-rule:nonzero;stroke:none;stroke-width:1;marker:none;visibility:visible;display:inline;overflow:visible" />
  <path
     d="m 40.246148,42.430102 c 0,0 0,3.569856 0,3.569856 1.1865,0.0067 2.86838,-0.799823 2.86838,-1.785158 0,-0.985333 -1.324045,-1.784697 -2.86838,-1.784698 z"
     id="path2883"
     style="opacity:0.3;fill:url(#radialGradient3327);fill-opacity:1;fill-rule:nonzero;stroke:none;stroke-width:1;marker:none;visibility:visible;display:inline;overflow:visible" />
  <path
     d="m 6.4999609,0.49719878 c 8.0202951,0 16.0405901,0 24.0608861,0 1.406933,0.4746531 8.965454,5.88220462 10.939195,9.62640622 0,11.459733 0,22.919465 0,34.379198 -11.666694,0 -23.333387,0 -35.0000811,0 0,-14.668535 0,-29.33707 0,-44.00560422 z"
     id="path4160"
     style="fill:url(#linearGradient3322);fill-opacity:1;stroke:url(#linearGradient3324);stroke-width:0.99992186;stroke-linecap:butt;stroke-linejoin:round;stroke-miterlimit:4;stroke-opacity:1;stroke-dasharray:none;stroke-dashoffset:0;display:inline" />
  <path
     d="m 7.3617017,44 c -0.199297,0 -0.361702,-0.175459 -0.361702,-0.39078 l 0,-42.2040499 c 0,-0.2157088 0.162405,-0.3907775 0.361702,-0.3907775 C 14.844793,1.1224073 23.137385,0.85281757 30.611384,1.0412872 L 40.894021,9.9073127 41,43.60922 C 41,43.824541 40.837957,44 40.638297,44 L 7.3617017,44 z"
     id="path4191"
     style="fill:url(#radialGradient3319);fill-opacity:1" />
  <path
     d="m 40.500039,10.258811 c 0,10.949037 0,22.31441 0,33.263447 -11.000026,0 -22.000052,0 -33.0000781,0 0,-14.014841 0,-28.029681 0,-42.0445213 7.5619931,0 15.3043341,0 22.8663281,0"
     id="path2435"
     style="opacity:0.6;fill:none;stroke:url(#linearGradient3316);stroke-width:0.9999218;stroke-linecap:butt;stroke-linejoin:round;stroke-miterlimit:4;stroke-opacity:1;stroke-dasharray:none;stroke-dashoffset:0;display:inline" />
  <path
     d="m 28.617256,0.92125832 c 4.282522,0 2.15325,8.48317128 2.15325,8.48317128 0,0 10.357642,-1.8023467 10.357642,2.8187444 0,-2.6097233 -11.302304,-10.7285956 -12.510892,-11.30191568 z"
     id="path12038"
     style="opacity:0.4;fill:black;fill-opacity:1;fill-rule:evenodd;stroke:none;display:inline;filter:url(#filter3212)" />
  <path
     d="m 28.617256,0.92125832 c 3.186493,0 2.33576,7.66187848 2.33576,7.66187848 0,0 10.175132,-0.9810539 10.175132,3.6400372 0,-1.125939 0.08591,-1.932245 -0.133777,-2.2835928 C 39.416058,7.4154025 32.598855,1.7511811 30.137071,1.008793 29.952849,0.95323837 29.544367,0.92125832 28.617256,0.92125832 z"
     id="path4474"
     style="fill:url(#linearGradient3312);fill-opacity:1;fill-rule:evenodd;stroke:none;display:inline" />
</svg>

<?xml version="1.0" encoding="UTF-8" standalone="no"?>
<!-- Created with Inkscape (http://www.inkscape.org/) -->
<svg
   xmlns:dc="http://purl.org/dc/elements/1.1/"
   xmlns:cc="http://creativecommons.org/ns#"
   xmlns:rdf="http://www.w3.org/1999/02/22-rdf-syntax-ns#"
   xmlns:svg="http://www.w3.org/2000/svg"
   xmlns="http://www.w3.org/2000/svg"
   xmlns:xlink="http://www.w3.org/1999/xlink"
   xmlns:sodipodi="http://sodipodi.sourceforge.net/DTD/sodipodi-0.dtd"
   xmlns:inkscape="http://www.inkscape.org/namespaces/inkscape"
   version="1.0"
   width="48"
   height="48"
   id="svg4486"
   sodipodi:version="0.32"
   inkscape:version="0.46"
   sodipodi:docname="text-x-preview.svg"
   inkscape:output_extension="org.inkscape.output.svg.inkscape">
  <metadata
     id="metadata51">
    <rdf:RDF>
      <cc:Work
         rdf:about="">
        <dc:format>image/svg+xml</dc:format>
        <dc:type
           rdf:resource="http://purl.org/dc/dcmitype/StillImage" />
      </cc:Work>
    </rdf:RDF>
  </metadata>
  <sodipodi:namedview
     inkscape:window-height="738"
     inkscape:window-width="1007"
     inkscape:pageshadow="2"
     inkscape:pageopacity="0.0"
     guidetolerance="10.0"
     gridtolerance="10.0"
     objecttolerance="10.0"
     borderopacity="1.0"
     bordercolor="#666666"
     pagecolor="#ffffff"
     id="base"
     showgrid="false"
     inkscape:zoom="25.443452"
     inkscape:cx="30.08861"
     inkscape:cy="39.951807"
     inkscape:window-x="430"
     inkscape:window-y="38"
     inkscape:current-layer="svg4486" />
  <defs
     id="defs4488">
    <linearGradient
       id="linearGradient5048">
      <stop
         id="stop5050"
         style="stop-color:#000000;stop-opacity:0"
         offset="0" />
      <stop
         id="stop5056"
         style="stop-color:#000000;stop-opacity:1"
         offset="0.5" />
      <stop
         id="stop5052"
         style="stop-color:#000000;stop-opacity:0"
         offset="1" />
    </linearGradient>
    <linearGradient
       id="linearGradient5060">
      <stop
         id="stop5062"
         style="stop-color:#000000;stop-opacity:1"
         offset="0" />
      <stop
         id="stop5064"
         style="stop-color:#000000;stop-opacity:0"
         offset="1" />
    </linearGradient>
    <linearGradient
       id="linearGradient3104">
      <stop
         id="stop3106"
         style="stop-color:#aaaaaa;stop-opacity:1"
         offset="0" />
      <stop
         id="stop3108"
         style="stop-color:#c8c8c8;stop-opacity:1"
         offset="1" />
    </linearGradient>
    <linearGradient
       id="linearGradient3600">
      <stop
         id="stop3602"
         style="stop-color:#f4f4f4;stop-opacity:1"
         offset="0" />
      <stop
         id="stop3604"
         style="stop-color:#dbdbdb;stop-opacity:1"
         offset="1" />
    </linearGradient>
    <radialGradient
       cx="102"
       cy="112.3047"
       r="139.55859"
       id="XMLID_8_"
       gradientUnits="userSpaceOnUse">
      <stop
         id="stop41"
         style="stop-color:#b7b8b9;stop-opacity:1"
         offset="0" />
      <stop
         id="stop47"
         style="stop-color:#ececec;stop-opacity:1"
         offset="0.18851049" />
      <stop
         id="stop49"
         style="stop-color:#fafafa;stop-opacity:0"
         offset="0.25718147" />
      <stop
         id="stop51"
         style="stop-color:#ffffff;stop-opacity:0"
         offset="0.30111277" />
      <stop
         id="stop53"
         style="stop-color:#fafafa;stop-opacity:0"
         offset="0.53130001" />
      <stop
         id="stop55"
         style="stop-color:#ebecec;stop-opacity:0"
         offset="0.84490001" />
      <stop
         id="stop57"
         style="stop-color:#e1e2e3;stop-opacity:0"
         offset="1" />
    </radialGradient>
    <linearGradient
       id="linearGradient3211">
      <stop
         id="stop3213"
         style="stop-color:#ffffff;stop-opacity:1"
         offset="0" />
      <stop
         id="stop3215"
         style="stop-color:#ffffff;stop-opacity:0"
         offset="1" />
    </linearGradient>
    <linearGradient
       id="linearGradient8589">
      <stop
         id="stop8591"
         style="stop-color:#fefefe;stop-opacity:1"
         offset="0" />
      <stop
         id="stop8593"
         style="stop-color:#cbcbcb;stop-opacity:1"
         offset="1" />
    </linearGradient>
    <linearGradient
       inkscape:collect="always"
       xlink:href="#linearGradient8589"
       id="linearGradient3312"
       gradientUnits="userSpaceOnUse"
       gradientTransform="matrix(0.9976985,0,0,1.0406866,0.1638029,-1.1057939)"
       x1="32.892288"
       y1="8.0590115"
       x2="36.358372"
       y2="5.4565363" />
    <linearGradient
       inkscape:collect="always"
       xlink:href="#linearGradient3211"
       id="linearGradient3316"
       gradientUnits="userSpaceOnUse"
       gradientTransform="matrix(1,0,0,0.9777778,0,-0.9666693)"
       x1="24"
       y1="1.9999999"
       x2="24"
       y2="46.01725" />
    <radialGradient
       inkscape:collect="always"
       xlink:href="#XMLID_8_"
       id="radialGradient3319"
       gradientUnits="userSpaceOnUse"
       gradientTransform="matrix(0.3617022,0,0,-0.3907784,0.8510637,47.517004)"
       cx="102"
       cy="112.3047"
       r="139.55859" />
    <linearGradient
       inkscape:collect="always"
       xlink:href="#linearGradient3600"
       id="linearGradient3322"
       gradientUnits="userSpaceOnUse"
       gradientTransform="matrix(1,0,0,0.9561695,-1.0064697e-7,-1.914922)"
       x1="25.132275"
       y1="0.98520643"
       x2="25.132275"
       y2="47.013336" />
    <linearGradient
       inkscape:collect="always"
       xlink:href="#linearGradient3104"
       id="linearGradient3324"
       gradientUnits="userSpaceOnUse"
       gradientTransform="matrix(0.8074968,0,0,0.8948322,59.410232,-2.9805533)"
       x1="-51.786404"
       y1="50.786446"
       x2="-51.786404"
       y2="2.9062471" />
    <radialGradient
       inkscape:collect="always"
       xlink:href="#linearGradient5060"
       id="radialGradient3327"
       gradientUnits="userSpaceOnUse"
       gradientTransform="matrix(2.3039948e-2,0,0,1.4700216e-2,26.360882,37.040176)"
       cx="605.71429"
       cy="486.64789"
       fx="605.71429"
       fy="486.64789"
       r="117.14286" />
    <radialGradient
       inkscape:collect="always"
       xlink:href="#linearGradient5060"
       id="radialGradient3330"
       gradientUnits="userSpaceOnUse"
       gradientTransform="matrix(-2.3039943e-2,0,0,1.4700216e-2,21.62311,37.040176)"
       cx="605.71429"
       cy="486.64789"
       fx="605.71429"
       fy="486.64789"
       r="117.14286" />
    <linearGradient
       inkscape:collect="always"
       xlink:href="#linearGradient5048"
       id="linearGradient3333"
       gradientUnits="userSpaceOnUse"
       gradientTransform="matrix(6.7324884e-2,0,0,1.4700216e-2,-0.3411391,37.040146)"
       x1="302.85715"
       y1="366.64789"
       x2="302.85715"
       y2="609.50507" />
    <filter
       inkscape:collect="always"
       id="filter3212"
       x="-0.14846256"
       width="1.2969251"
       y="-0.16434373"
       height="1.3286875">
      <feGaussianBlur
         inkscape:collect="always"
         stdDeviation="0.77391625"
         id="feGaussianBlur3214" />
    </filter>
  </defs>
  <rect
     style="opacity:0.3;fill:url(#linearGradient3333);fill-opacity:1;fill-rule:nonzero;stroke:none;stroke-width:1;stroke-linecap:round;stroke-linejoin:miter;marker:none;marker-start:none;marker-mid:none;marker-end:none;stroke-miterlimit:4;stroke-dasharray:none;stroke-dashoffset:0;stroke-opacity:1;visibility:visible;display:inline;overflow:visible"
     id="rect2879"
     y="42.429947"
     x="7.7378473"
     height="3.5700529"
     width="32.508301" />
  <path
     style="opacity:0.3;fill:url(#radialGradient3330);fill-opacity:1;fill-rule:nonzero;stroke:none;stroke-width:1;stroke-linecap:round;stroke-linejoin:miter;marker:none;marker-start:none;marker-mid:none;marker-end:none;stroke-miterlimit:4;stroke-dasharray:none;stroke-dashoffset:0;stroke-opacity:1;visibility:visible;display:inline;overflow:visible"
     id="path2881"
     d="M 7.7378475,42.430102 C 7.7378475,42.430102 7.7378475,45.999958 7.7378475,45.999958 C 6.5513473,46.006679 4.869468,45.200135 4.869468,44.2148 C 4.869468,43.229467 6.1935126,42.430103 7.7378475,42.430102 z" />
  <path
     style="opacity:0.3;fill:url(#radialGradient3327);fill-opacity:1;fill-rule:nonzero;stroke:none;stroke-width:1;stroke-linecap:round;stroke-linejoin:miter;marker:none;marker-start:none;marker-mid:none;marker-end:none;stroke-miterlimit:4;stroke-dasharray:none;stroke-dashoffset:0;stroke-opacity:1;visibility:visible;display:inline;overflow:visible"
     id="path2883"
     d="M 40.246148,42.430102 C 40.246148,42.430102 40.246148,45.999958 40.246148,45.999958 C 41.432648,46.006679 43.114528,45.200135 43.114528,44.2148 C 43.114528,43.229467 41.790483,42.430103 40.246148,42.430102 z" />
  <path
     style="fill:url(#linearGradient3322);fill-opacity:1;stroke:url(#linearGradient3324);stroke-width:0.99992186;stroke-linecap:butt;stroke-linejoin:round;stroke-miterlimit:4;stroke-dasharray:none;stroke-dashoffset:0;stroke-opacity:1;display:inline"
     id="path4160"
     d="M 6.4999609,0.49719878 C 14.520256,0.49719878 22.540551,0.49719878 30.560847,0.49719878 C 31.96778,0.97185188 39.526301,6.3794034 41.500042,10.123605 C 41.500042,21.583338 41.500042,33.04307 41.500042,44.502803 C 29.833348,44.502803 18.166655,44.502803 6.4999609,44.502803 C 6.4999609,29.834268 6.4999609,15.165733 6.4999609,0.49719878 z" />
  <path
     style="fill:url(#radialGradient3319);fill-opacity:1"
     id="path4191"
     d="M 7.3617017,44 C 7.1624047,44 6.9999997,43.824541 6.9999997,43.60922 L 6.9999997,1.4051701 C 6.9999997,1.1894613 7.1624047,1.0143926 7.3617017,1.0143926 C 14.844793,1.1224073 23.137385,0.85281757 30.611384,1.0412872 L 40.894021,9.9073127 L 41,43.60922 C 41,43.824541 40.837957,44 40.638297,44 L 7.3617017,44 z" />
  <path
     style="opacity:0.6;fill:none;fill-opacity:1;stroke:url(#linearGradient3316);stroke-width:0.9999218;stroke-linecap:butt;stroke-linejoin:round;stroke-miterlimit:4;stroke-dasharray:none;stroke-dashoffset:0;stroke-opacity:1;display:inline"
     id="path2435"
     d="M 40.500039,10.258811 C 40.500039,21.207848 40.500039,32.573221 40.500039,43.522258 C 29.500013,43.522258 18.499987,43.522258 7.4999609,43.522258 C 7.4999609,29.507417 7.4999609,15.492577 7.4999609,1.4777367 C 15.061954,1.4777367 22.804295,1.4777367 30.366289,1.4777367" />
  <path
     style="opacity:0.40000000000000002;fill:#000000;fill-opacity:1;fill-rule:evenodd;stroke:none;stroke-width:1px;stroke-linecap:butt;stroke-linejoin:miter;stroke-opacity:1;display:inline;filter:url(#filter3212)"
     id="path12038"
     d="M 28.617256,0.92125832 C 32.899778,0.92125832 30.770506,9.4044296 30.770506,9.4044296 C 30.770506,9.4044296 41.128148,7.6020829 41.128148,12.223174 C 41.128148,9.6134507 29.825844,1.4945784 28.617256,0.92125832 z" />
  <path
     style="fill:url(#linearGradient3312);fill-opacity:1;fill-rule:evenodd;stroke:none;stroke-width:1px;stroke-linecap:butt;stroke-linejoin:miter;stroke-opacity:1;display:inline"
     id="path4474"
     d="M 28.617256,0.92125832 C 31.803749,0.92125832 30.953016,8.5831368 30.953016,8.5831368 C 30.953016,8.5831368 41.128148,7.6020829 41.128148,12.223174 C 41.128148,11.097235 41.214061,10.290929 40.994371,9.9395812 C 39.416058,7.4154025 32.598855,1.7511811 30.137071,1.008793 C 29.952849,0.95323837 29.544367,0.92125832 28.617256,0.92125832 z" />
</svg>
